Hatter-kde-dark/actions/16/path-inset.svg

<?xml version="1.0" encoding="UTF-8"?>
<svg viewBox="0 0 16 16" xmlns="http://www.w3.org/2000/svg">
 <defs id="defs3051">
  <style id="current-color-scheme" type="text/css">.ColorScheme-Text {
        color:#dedede;
      }
      .ColorScheme-Highlight {
        color:#3daee9;
      }</style>
 </defs>
 <path class="ColorScheme-Text" d="m14 2a12 12 0 0 0-12 12h1a11 11 0 0 1 11-11v-1zm-5 4-3 3h3v-3z" fill="currentColor"/>
 <path class="ColorScheme-Highlight" d="m14 8a6 6 0 0 0-6 6h1a5 5 0 0 1 5-5z" fill="currentColor"/>
</svg>

<svg xmlns="http://www.w3.org/2000/svg" viewBox="0 0 16 16">
  <defs id="defs3051">
    <style type="text/css" id="current-color-scheme">
      .ColorScheme-Text {
        color:#dedede;
      }
      .ColorScheme-Highlight {
        color:#3daee9;
      }
      </style>
  </defs>
  <path 
        style="fill:currentColor;fill-opacity:1;stroke:none"
        d="M 14 2 A 12.00001 12.00001 0 0 0 2 14 L 3 14 A 11 11 0 0 1 14 3 L 14 2 z M 9 6 L 6 9 L 9 9 L 9 6 z "
        class="ColorScheme-Text"
        />
  <path
        style="fill:currentColor;fill-opacity:1;stroke:none"
        d="m 14,8 a 6,6 0 0 0 -6,6 l 1,0 a 5,5 0 0 1 5,-5 z" 
        class="ColorScheme-Highlight"
      />
</svg>
